src/components/icons/ElectronicsIcon.svg

<svg width="36" height="36" viewBox="0 0 36 36" fill="none" xmlns="http://www.w3.org/2000/svg">
<path d="M11.7606 10.3846L23.6095 10.3846C24.582 10.3846 25.3709 11.1238 25.3709 12.0359C25.3709 12.9477 24.582 13.6871 23.6095 13.6871L23.0897 13.6871C23.1134 13.834 23.1294 13.9837 23.1294 14.137L23.1294 19.2718C23.1294 20.9298 21.696 22.2739 19.9271 22.2739L19.1905 22.2739L19.1905 23.5622C19.1905 24.1461 18.856 24.381 18.3583 24.4742L18.3583 32L16.4471 32L16.4471 24.437C16.0388 24.324 15.7746 24.081 15.7746 23.5622L15.7746 22.2739L15.4436 22.2739C13.6754 22.2739 12.2414 20.9299 12.2414 19.2718L12.2414 14.137C12.2414 13.9837 12.2579 13.834 12.2813 13.6871L11.7613 13.6871C10.7888 13.6871 10 12.9477 10 12.0359C10.0001 11.1238 10.7881 10.3846 11.7606 10.3846ZM14.3971 4C13.7073 4 13.1481 4.52466 13.1481 5.17096L13.1481 9.87416L15.646 9.87416L15.646 5.17096C15.646 4.52466 15.0872 4 14.3971 4ZM19.6388 5.17096L19.6388 9.87416L22.1366 9.87416L22.1366 5.17096C22.1366 4.52466 21.5773 4 20.8876 4C20.1979 4 19.6388 4.52466 19.6388 5.17096Z" fill="url(#paint0_linear)"/>
<path d="M25.3709 12.0359C25.3709 11.1238 24.582 10.3846 23.6095 10.3846C18.8287 11.7473 16.3942 19.7375 15.7746 23.5622C15.7746 24.081 16.0388 24.324 16.4471 24.437L16.4471 32L18.3583 32L18.3583 24.4742C18.8559 24.381 19.1905 24.1461 19.1905 23.5622L19.1905 22.2739L19.9271 22.2739C21.696 22.2739 23.1294 20.9298 23.1294 19.2718L23.1294 14.137C23.1294 13.9837 23.1134 13.834 23.0897 13.6871L23.6095 13.6871C24.582 13.6871 25.3709 12.9477 25.3709 12.0359Z" fill="black" fill-opacity="0.25"/>
<defs>
<linearGradient id="paint0_linear" x1="25.1521" y1="3.78121" x2="16.5188" y2="31.7812" gradientUnits="userSpaceOnUse">
<stop stop-color="#4527A0"/>
<stop offset="1" stop-color="#651FFF"/>
</linearGradient>
</defs>
</svg>

<svg width="36" height="36" fill="none" xmlns="http://www.w3.org/2000/svg"><path d="M11.76 10.385h11.85c.972 0 1.76.739 1.76 1.65 0 .913-.788 1.652-1.76 1.652h-.52c.023.147.04.297.04.45v5.135c0 1.658-1.434 3.002-3.203 3.002h-.736v1.288c0 .584-.335.819-.833.912V32h-1.91v-7.563c-.41-.113-.673-.356-.673-.875v-1.288h-.331c-1.769 0-3.203-1.344-3.203-3.002v-5.135c0-.153.017-.303.04-.45h-.52c-.972 0-1.761-.74-1.761-1.651 0-.912.788-1.651 1.76-1.651zM14.398 4c-.69 0-1.249.525-1.249 1.171v4.703h2.498V5.171c0-.646-.559-1.171-1.249-1.171zm5.242 1.171v4.703h2.498V5.171c0-.646-.56-1.171-1.25-1.171s-1.248.525-1.248 1.171z" fill="url(#paint0_linear)"/><path d="M25.37 12.036c0-.912-.788-1.651-1.76-1.651-4.781 1.362-7.216 9.353-7.835 13.177 0 .519.264.762.672.875V32h1.911v-7.526c.498-.093.832-.328.832-.912v-1.288h.737c1.769 0 3.202-1.344 3.202-3.002v-5.135c0-.153-.016-.303-.04-.45h.52c.973 0 1.762-.74 1.762-1.651z" fill="#000" fill-opacity=".25"/><defs><linearGradient id="paint0_linear" x1="25.152" y1="3.781" x2="16.519" y2="31.781" gradientUnits="userSpaceOnUse"><stop stop-color="#4527A0"/><stop offset="1" stop-color="#651FFF"/></linearGradient></defs></svg>
